svg/Meteorology/thunderstorms/hail/thunderstorm_severe.svg

<?xml version="1.0" encoding="UTF-8" standalone="no"?>
<!-- Created with Inkscape (http://www.inkscape.org/) -->
<svg
   xmlns:dc="http://purl.org/dc/elements/1.1/"
   xmlns:cc="http://web.resource.org/cc/"
   xmlns:rdf="http://www.w3.org/1999/02/22-rdf-syntax-ns#"
   xmlns:svg="http://www.w3.org/2000/svg"
   xmlns="http://www.w3.org/2000/svg"
   xmlns:sodipodi="http://sodipodi.sourceforge.net/DTD/sodipodi-0.dtd"
   xmlns:inkscape="http://www.inkscape.org/namespaces/inkscape"
   width="744.09448819"
   height="1052.3622047"
   id="svg2"
   sodipodi:version="0.32"
   inkscape:version="0.44.1"
   sodipodi:docbase="C:\Documents and Settings\pc\Desktop\meteo\meteo svg\thunderstorms\hail"
   sodipodi:docname="thunderstorm_severe.svg">
  <defs
     id="defs4" />
  <sodipodi:namedview
     id="base"
     pagecolor="#ffffff"
     bordercolor="#666666"
     borderopacity="1.0"
     inkscape:pageopacity="0.0"
     inkscape:pageshadow="2"
     inkscape:zoom="1.4"
     inkscape:cx="375"
     inkscape:cy="607.69238"
     inkscape:document-units="px"
     inkscape:current-layer="layer1"
     showgrid="true"
     inkscape:window-width="1280"
     inkscape:window-height="744"
     inkscape:window-x="-4"
     inkscape:window-y="-4" />
  <metadata
     id="metadata7">
    <rdf:RDF>
      <cc:Work
         rdf:about="">
        <dc:format>image/svg+xml</dc:format>
        <dc:type
           rdf:resource="http://purl.org/dc/dcmitype/StillImage" />
      </cc:Work>
    </rdf:RDF>
  </metadata>
  <g
     inkscape:label="Livello 1"
     inkscape:groupmode="layer"
     id="layer1">
    <g
       id="g4467">
      <path
         id="path1935"
         d="M 416.7857,533.6729 L 417.14284,416.1729 L 480.35713,416.53004"
         style="fill:none;fill-rule:evenodd;stroke:black;stroke-width:4.5;stroke-linecap:butt;stroke-linejoin:miter;stroke-miterlimit:4;stroke-dasharray:none;stroke-opacity:1" />
      <path
         sodipodi:nodetypes="cccc"
         id="path2824"
         d="M 474.88088,462.26857 L 444.14815,487.55129 L 458.93465,500.6727 L 473.72115,513.79411"
         style="fill:none;fill-rule:evenodd;stroke:black;stroke-width:1.62836874;stroke-linecap:butt;stroke-linejoin:miter;stroke-miterlimit:4;stroke-dasharray:none;stroke-opacity:1" />
      <path
         id="path4598"
         d="M 476.38782,511.88119 L 470.22673,514.9858 L 475.98742,516.04907 L 476.38782,511.88119 z "
         style="fill:black;fill-opacity:1;fill-rule:evenodd;stroke:black;stroke-width:0.69907898px;stroke-linecap:butt;stroke-linejoin:miter;stroke-opacity:1" />
      <path
         id="path2725"
         d="M 441.6878,462.24433 L 479.1878,417.24433"
         style="fill:none;fill-rule:evenodd;stroke:black;stroke-width:2.29999995;stroke-linecap:butt;stroke-linejoin:miter;stroke-miterlimit:4;stroke-dasharray:none;stroke-opacity:1" />
      <path
         id="path5553"
         d="M 440.8781,462.12174 L 475.34955,462.12174"
         style="fill:none;fill-rule:evenodd;stroke:black;stroke-width:1.79999995;stroke-linecap:butt;stroke-linejoin:miter;stroke-miterlimit:4;stroke-dasharray:none;stroke-opacity:1" />
      <path
         id="path3539"
         d="M 433.1995,406.17743 L 460.79782,406.17743 L 446.32004,382.80355 L 433.1995,406.17743 z "
         style="fill:none;fill-rule:evenodd;stroke:black;stroke-width:3.58271217;stroke-linecap:butt;stroke-linejoin:miter;stroke-miterlimit:4;stroke-dasharray:none;stroke-opacity:1" />
    </g>
  </g>
</svg>

<svg xmlns="http://www.w3.org/2000/svg" viewBox="0 0 744.09 1052.36"><g fill-rule="evenodd" stroke="#000"><g fill="none"><path d="m416.79 533.67l.357-117.5 63.21.357" stroke-width="4.5"/><path d="m474.88 462.27l-30.733 25.283 14.786 13.12 14.787 13.12" stroke-width="1.628"/></g><path d="m476.39 511.88l-6.161 3.105 5.761 1.063.4-4.168z" stroke-width=".699"/><g fill="none"><path d="m441.69 462.24l37.5-45" stroke-width="2.3"/><path d="m440.88 462.12h34.471" stroke-width="1.8"/><path d="m433.2 406.18h27.598l-14.478-23.374-13.12 23.374z" stroke-width="3.583"/></g></g></svg>
